dist/svg/email-message.svg

<!-- Generated by Trend Micro Style Portal -->
<svg version="1.1" xmlns="http://www.w3.org/2000/svg" width="16" height="16" viewBox="0 0 16 16">
  <title>email-message</title>
  <path fill="rgb(34,34,34)" d="M13 7.978v-6.978h-10v6.978l5 3.889 5-3.889zM5 3h6v1h-6v-1zM5 5h6v1h-6v-1zM16 6.045v8.955c-0 0.552-0.448 1-1 1h-14c-0.552-0-1-0.448-1-1v-8.955l2-1.511v1.349l-1 0.781v0.882l7 5.455 7-5.455v-0.882l-1-0.781v-1.349l2 1.511z"></path>
</svg>

<svg width="16" height="16" viewBox="0 0 16 16" fill="rgb(34, 34, 34)" xmlns="http://www.w3.org/2000/svg"><title>email-message</title><path d="M13 7.978V1H3V7.978L8 11.867L13 7.978ZM5 3H11V4H5V3ZM5 5H11V6H5V5ZM16 6.045V15C16 15.552 15.552 16 15 16H1C0.448 16 0 15.552 0 15V6.045L2 4.534V5.883L1 6.664V7.546L8 13.001L15 7.546V6.664L14 5.883V4.534L16 6.045Z" fill="rgb(34, 34, 34)" fill-opacity="1.00"/></svg>
